X:71
M:6/8
L:1/8
K:D
|: ABA ecA | GFG F3 | fed dcB | cB^A B3 | dcB AGF | BAG FED | GAB Agf | edc d3 :|

